app/src/main/assets/symbols/accommodation/caravan.svg

<?xml version="1.0" encoding="UTF-8" standalone="no"?>
<svg
   xmlns:dc="http://purl.org/dc/elements/1.1/"
   xmlns:cc="http://creativecommons.org/ns#"
   xmlns:rdf="http://www.w3.org/1999/02/22-rdf-syntax-ns#"
   xmlns:svg="http://www.w3.org/2000/svg"
   xmlns="http://www.w3.org/2000/svg"
   version="1.1"
   width="16"
   height="16"
   viewBox="0 0 16 16"
   id="svg2">
   <metadata id="metadata8">
    <rdf:RDF>
      <cc:Work rdf:about="">
        <dc:format>image/svg+xml</dc:format>
        <dc:type rdf:resource="http://purl.org/dc/dcmitype/StillImage"/>
        <dc:title/>
      </cc:Work>
    </rdf:RDF>
  </metadata>
  <defs id="defs6"/>
  <rect width="16" height="16" x="0" y="0" id="canvas" style="fill:none;stroke:none;visibility:hidden"/>
  <path d="M 2,2 C 1,2 0,3 0,4 l 0,4 c 0,1 1,2 2,2 l 1.0625,0 C 3.295616,8.860792 4.291877,8 5.5,8 6.708123,8 7.704384,8.860792 7.9375,10 L 14,10 c 0,0 0,-1 -1,-1 l -1.5,0 0,-5 c 0,-0.9606645 -1.024338,-2 -2,-2 z M 2.84375,4 C 2.9375,3.984375 3,4 3,4 L 5,4 C 5,4 6,4 6,5 6,6 5,6 5,6 L 3,6 C 3,6 2,6 2,5 2,4.25 2.5625,4.046875 2.84375,4 z M 8,4 8.5,4 c 0,0 1,0 1,1 0,1 -1,1 -1,1 L 8,6 C 8,6 7,6 7,5 7,4 8,4 8,4 z M 5.5,9 C 4.671573,9 4,9.671573 4,10.5 4,11.328427 4.671573,12 5.5,12 6.328427,12 7,11.328427 7,10.5 7,9.671573 6.328427,9 5.5,9 z" id="caravan" style="fill:#0092da;fill-opacity:1" transform="translate(1,1)"/>
</svg>

<?xml version="1.0" encoding="UTF-8"?>
<svg version="1.1" viewBox="0 0 16 16" xmlns="http://www.w3.org/2000/svg" xmlns:cc="http://creativecommons.org/ns#" xmlns:dc="http://purl.org/dc/elements/1.1/" xmlns:rdf="http://www.w3.org/1999/02/22-rdf-syntax-ns#">
<metadata>
<rdf:RDF>
<cc:Work rdf:about="">
<dc:format>image/svg+xml</dc:format>
<dc:type rdf:resource="http://purl.org/dc/dcmitype/StillImage"/>
<dc:title/>
</cc:Work>
</rdf:RDF>
</metadata>
<rect width="16" height="16" fill="none" visibility="hidden"/>
<path transform="translate(1,1)" d="m2 2c-1 0-2 1-2 2v4c0 1 1 2 2 2h1.0625c0.23312-1.1392 1.2294-2 2.4375-2s2.2044 0.86079 2.4375 2h6.0625s0-1-1-1h-1.5v-5c0-0.96066-1.0243-2-2-2zm0.84375 2c0.09375-0.015625 0.15625 0 0.15625 0h2s1 0 1 1-1 1-1 1h-2s-1 0-1-1c0-0.75 0.5625-0.95312 0.84375-1zm5.1562 0h0.5s1 0 1 1-1 1-1 1h-0.5s-1 0-1-1 1-1 1-1zm-2.5 5c-0.82843 0-1.5 0.67157-1.5 1.5s0.67157 1.5 1.5 1.5 1.5-0.67157 1.5-1.5-0.67157-1.5-1.5-1.5z" fill="#0092da"/>
</svg>
